backend/output/cc65dae9-cd68-4f0a-bf68-c43f52be24b7.cube
# Generated by LUT Generator
LUT_3D_SIZE 8
DOMAIN_MIN 0.000000 0.000000 0.000000
DOMAIN_MAX 0.903226 0.903226 0.903226
0.000000 0.000000 0.000000
0.000000 0.000000 0.027387
0.000000 0.000000 0.175774
0.000000 0.000000 0.324161
0.000000 0.000000 0.472548
0.000000 0.000000 0.620935
0.000000 0.000000 0.769323
0.000000 0.000000 0.917710
0.119387 0.000000 0.000000
0.119387 0.000000 0.027387
0.119387 0.000000 0.175774
0.119387 0.000000 0.324161
0.119387 0.000000 0.472548
0.119387 0.000000 0.620935
0.119387 0.000000 0.769323
0.119387 0.000000 0.917710
0.267774 0.000000 0.000000
0.267774 0.000000 0.027387
0.267774 0.000000 0.175774
0.267774 0.000000 0.324161
0.267774 0.000000 0.472548
0.267774 0.000000 0.620935
0.267774 0.000000 0.769323
0.267774 0.000000 0.917710
0.416161 0.000000 0.000000
0.416161 0.000000 0.027387
0.416161 0.000000 0.175774
0.416161 0.000000 0.324161
0.416161 0.000000 0.472548
0.416161 0.000000 0.620935
0.416161 0.000000 0.769323
0.416161 0.000000 0.917710
0.564548 0.000000 0.000000
0.564548 0.000000 0.027387
0.564548 0.000000 0.175774
0.564548 0.000000 0.324161
0.564548 0.000000 0.472548
0.564548 0.000000 0.620935
0.564548 0.000000 0.769323
0.564548 0.000000 0.917710
0.712935 0.000000 0.000000
0.712935 0.000000 0.027387
0.712935 0.000000 0.175774
0.712935 0.000000 0.324161
0.712935 0.000000 0.472548
0.712935 0.000000 0.620935
0.712935 0.000000 0.769323
0.712935 0.000000 0.917710
0.861323 0.000000 0.000000
0.861323 0.000000 0.027387
0.861323 0.000000 0.175774
0.861323 0.000000 0.324161
0.861323 0.000000 0.472548
0.861323 0.000000 0.620935
0.861323 0.000000 0.769323
0.861323 0.000000 0.917710
1.000000 0.000000 0.000000
1.000000 0.000000 0.027387
1.000000 0.000000 0.175774
1.000000 0.000000 0.324161
1.000000 0.000000 0.472548
1.000000 0.000000 0.620935
1.000000 0.000000 0.769323
1.000000 0.000000 0.917710
0.000000 0.073387 0.000000
0.000000 0.073387 0.027387
0.000000 0.073387 0.175774
0.000000 0.073387 0.324161
0.000000 0.073387 0.472548
0.000000 0.073387 0.620935
0.000000 0.073387 0.769323
0.000000 0.073387 0.917710
0.119387 0.073387 0.000000
0.119387 0.073387 0.027387
0.119387 0.073387 0.175774
0.119387 0.073387 0.324161
0.119387 0.073387 0.472548
0.119387 0.073387 0.620935
0.119387 0.073387 0.769323
0.119387 0.073387 0.917710
0.267774 0.073387 0.000000
0.267774 0.073387 0.027387
0.267774 0.073387 0.175774
0.267774 0.073387 0.324161
0.267774 0.073387 0.472548
0.267774 0.073387 0.620935
0.267774 0.073387 0.769323
0.267774 0.073387 0.917710
0.416161 0.073387 0.000000
0.416161 0.073387 0.027387
0.416161 0.073387 0.175774
0.416161 0.073387 0.324161
0.416161 0.073387 0.472548
0.416161 0.073387 0.620935
0.416161 0.073387 0.769323
0.416161 0.073387 0.917710
0.564548 0.073387 0.000000
0.564548 0.073387 0.027387
0.564548 0.073387 0.175774
0.564548 0.073387 0.324161
0.564548 0.073387 0.472548
0.564548 0.073387 0.620935
0.564548 0.073387 0.769323
0.564548 0.073387 0.917710
0.712935 0.073387 0.000000
0.712935 0.073387 0.027387
0.712935 0.073387 0.175774
0.712935 0.073387 0.324161
0.712935 0.073387 0.472548
0.712935 0.073387 0.620935
0.712935 0.073387 0.769323
0.712935 0.073387 0.917710
0.861323 0.073387 0.000000
0.861323 0.073387 0.027387
0.861323 0.073387 0.175774
0.861323 0.073387 0.324161
0.861323 0.073387 0.472548
0.861323 0.073387 0.620935
0.861323 0.073387 0.769323
0.861323 0.073387 0.917710
1.000000 0.073387 0.000000
1.000000 0.073387 0.027387
1.000000 0.073387 0.175774
1.000000 0.073387 0.324161
1.000000 0.073387 0.472548
1.000000 0.073387 0.620935
1.000000 0.073387 0.769323
1.000000 0.073387 0.917710
0.000000 0.221774 0.000000
0.000000 0.221774 0.027387
0.000000 0.221774 0.175774
0.000000 0.221774 0.324161
0.000000 0.221774 0.472548
0.000000 0.221774 0.620935
0.000000 0.221774 0.769323
0.000000 0.221774 0.917710
0.119387 0.221774 0.000000
0.119387 0.221774 0.027387
0.119387 0.221774 0.175774
0.119387 0.221774 0.324161
0.119387 0.221774 0.472548
0.119387 0.221774 0.620935
0.119387 0.221774 0.769323
0.119387 0.221774 0.917710
0.267774 0.221774 0.000000
0.267774 0.221774 0.027387
0.267774 0.221774 0.175774
0.267774 0.221774 0.324161
0.267774 0.221774 0.472548
0.267774 0.221774 0.620935
0.267774 0.221774 0.769323
0.267774 0.221774 0.917710
0.416161 0.221774 0.000000
0.416161 0.221774 0.027387
0.416161 0.221774 0.175774
0.416161 0.221774 0.324161
0.416161 0.221774 0.472548
0.416161 0.221774 0.620935
0.416161 0.221774 0.769323
0.416161 0.221774 0.917710
0.564548 0.221774 0.000000
0.564548 0.221774 0.027387
0.564548 0.221774 0.175774
0.564548 0.221774 0.324161
0.564548 0.221774 0.472548
0.564548 0.221774 0.620935
0.564548 0.221774 0.769323
0.564548 0.221774 0.917710
0.712935 0.221774 0.000000
0.712935 0.221774 0.027387
0.712935 0.221774 0.175774
0.712935 0.221774 0.324161
0.712935 0.221774 0.472548
0.712935 0.221774 0.620935
0.712935 0.221774 0.769323
0.712935 0.221774 0.917710
0.861323 0.221774 0.000000
0.861323 0.221774 0.027387
0.861323 0.221774 0.175774
0.861323 0.221774 0.324161
0.861323 0.221774 0.472548
0.861323 0.221774 0.620935
0.861323 0.221774 0.769323
0.861323 0.221774 0.917710
1.000000 0.221774 0.000000
1.000000 0.221774 0.027387
1.000000 0.221774 0.175774
1.000000 0.221774 0.324161
1.000000 0.221774 0.472548
1.000000 0.221774 0.620935
1.000000 0.221774 0.769323
1.000000 0.221774 0.917710
0.000000 0.370161 0.000000
0.000000 0.370161 0.027387
0.000000 0.370161 0.175774
0.000000 0.370161 0.324161
0.000000 0.370161 0.472548
0.000000 0.370161 0.620935
0.000000 0.370161 0.769323
0.000000 0.370161 0.917710
0.119387 0.370161 0.000000
0.119387 0.370161 0.027387
0.119387 0.370161 0.175774
0.119387 0.370161 0.324161
0.119387 0.370161 0.472548
0.119387 0.370161 0.620935
0.119387 0.370161 0.769323
0.119387 0.370161 0.917710
0.267774 0.370161 0.000000
0.267774 0.370161 0.027387
0.267774 0.370161 0.175774
0.267774 0.370161 0.324161
0.267774 0.370161 0.472548
0.267774 0.370161 0.620935
0.267774 0.370161 0.769323
0.267774 0.370161 0.917710
0.416161 0.370161 0.000000
0.416161 0.370161 0.027387
0.416161 0.370161 0.175774
0.416161 0.370161 0.324161
0.416161 0.370161 0.472548
0.416161 0.370161 0.620935
0.416161 0.370161 0.769323
0.416161 0.370161 0.917710
0.564548 0.370161 0.000000
0.564548 0.370161 0.027387
0.564548 0.370161 0.175774
0.564548 0.370161 0.324161
0.564548 0.370161 0.472548
0.564548 0.370161 0.620935
0.564548 0.370161 0.769323
0.564548 0.370161 0.917710
0.712935 0.370161 0.000000
0.712935 0.370161 0.027387
0.712935 0.370161 0.175774
0.712935 0.370161 0.324161
0.712935 0.370161 0.472548
0.712935 0.370161 0.620935
0.712935 0.370161 0.769323
0.712935 0.370161 0.917710
0.861323 0.370161 0.000000
0.861323 0.370161 0.027387
0.861323 0.370161 0.175774
0.861323 0.370161 0.324161
0.861323 0.370161 0.472548
0.861323 0.370161 0.620935
0.861323 0.370161 0.769323
0.861323 0.370161 0.917710
1.000000 0.370161 0.000000
1.000000 0.370161 0.027387
1.000000 0.370161 0.175774
1.000000 0.370161 0.324161
1.000000 0.370161 0.472548
1.000000 0.370161 0.620935
1.000000 0.370161 0.769323
1.000000 0.370161 0.917710
0.000000 0.518548 0.000000
0.000000 0.518548 0.027387
0.000000 0.518548 0.175774
0.000000 0.518548 0.324161
0.000000 0.518548 0.472548
0.000000 0.518548 0.620935
0.000000 0.518548 0.769323
0.000000 0.518548 0.917710
0.119387 0.518548 0.000000
0.119387 0.518548 0.027387
0.119387 0.518548 0.175774
0.119387 0.518548 0.324161
0.119387 0.518548 0.472548
0.119387 0.518548 0.620935
0.119387 0.518548 0.769323
0.119387 0.518548 0.917710
0.267774 0.518548 0.000000
0.267774 0.518548 0.027387
0.267774 0.518548 0.175774
0.267774 0.518548 0.324161
0.267774 0.518548 0.472548
0.267774 0.518548 0.620935
0.267774 0.518548 0.769323
0.267774 0.518548 0.917710
0.416161 0.518548 0.000000
0.416161 0.518548 0.027387
0.416161 0.518548 0.175774
0.416161 0.518548 0.324161
0.416161 0.518548 0.472548
0.416161 0.518548 0.620935
0.416161 0.518548 0.769323
0.416161 0.518548 0.917710
0.564548 0.518548 0.000000
0.564548 0.518548 0.027387
0.564548 0.518548 0.175774
0.564548 0.518548 0.324161
0.564548 0.518548 0.472548
0.564548 0.518548 0.620935
0.564548 0.518548 0.769323
0.564548 0.518548 0.917710
0.712935 0.518548 0.000000
0.712935 0.518548 0.027387
0.712935 0.518548 0.175774
0.712935 0.518548 0.324161
0.712935 0.518548 0.472548
0.712935 0.518548 0.620935
0.712935 0.518548 0.769323
0.712935 0.518548 0.917710
0.861323 0.518548 0.000000
0.861323 0.518548 0.027387
0.861323 0.518548 0.175774
0.861323 0.518548 0.324161
0.861323 0.518548 0.472548
0.861323 0.518548 0.620935
0.861323 0.518548 0.769323
0.861323 0.518548 0.917710
1.000000 0.518548 0.000000
1.000000 0.518548 0.027387
1.000000 0.518548 0.175774
1.000000 0.518548 0.324161
1.000000 0.518548 0.472548
1.000000 0.518548 0.620935
1.000000 0.518548 0.769323
1.000000 0.518548 0.917710
0.000000 0.666935 0.000000
0.000000 0.666935 0.027387
0.000000 0.666935 0.175774
0.000000 0.666935 0.324161
0.000000 0.666935 0.472548
0.000000 0.666935 0.620935
0.000000 0.666935 0.769323
0.000000 0.666935 0.917710
0.119387 0.666935 0.000000
0.119387 0.666935 0.027387
0.119387 0.666935 0.175774
0.119387 0.666935 0.324161
0.119387 0.666935 0.472548
0.119387 0.666935 0.620935
0.119387 0.666935 0.769323
0.119387 0.666935 0.917710
0.267774 0.666935 0.000000
0.267774 0.666935 0.027387
0.267774 0.666935 0.175774
0.267774 0.666935 0.324161
0.267774 0.666935 0.472548
0.267774 0.666935 0.620935
0.267774 0.666935 0.769323
0.267774 0.666935 0.917710
0.416161 0.666935 0.000000
0.416161 0.666935 0.027387
0.416161 0.666935 0.175774
0.416161 0.666935 0.324161
0.416161 0.666935 0.472548
0.416161 0.666935 0.620935
0.416161 0.666935 0.769323
0.416161 0.666935 0.917710
0.564548 0.666935 0.000000
0.564548 0.666935 0.027387
0.564548 0.666935 0.175774
0.564548 0.666935 0.324161
0.564548 0.666935 0.472548
0.564548 0.666935 0.620935
0.564548 0.666935 0.769323
0.564548 0.666935 0.917710
0.712935 0.666935 0.000000
0.712935 0.666935 0.027387
0.712935 0.666935 0.175774
0.712935 0.666935 0.324161
0.712935 0.666935 0.472548
0.712935 0.666935 0.620935
0.712935 0.666935 0.769323
0.712935 0.666935 0.917710
0.861323 0.666935 0.000000
0.861323 0.666935 0.027387
0.861323 0.666935 0.175774
0.861323 0.666935 0.324161
0.861323 0.666935 0.472548
0.861323 0.666935 0.620935
0.861323 0.666935 0.769323
0.861323 0.666935 0.917710
1.000000 0.666935 0.000000
1.000000 0.666935 0.027387
1.000000 0.666935 0.175774
1.000000 0.666935 0.324161
1.000000 0.666935 0.472548
1.000000 0.666935 0.620935
1.000000 0.666935 0.769323
1.000000 0.666935 0.917710
0.000000 0.815323 0.000000
0.000000 0.815323 0.027387
0.000000 0.815323 0.175774
0.000000 0.815323 0.324161
0.000000 0.815323 0.472548
0.000000 0.815323 0.620935
0.000000 0.815323 0.769323
0.000000 0.815323 0.917710
0.119387 0.815323 0.000000
0.119387 0.815323 0.027387
0.119387 0.815323 0.175774
0.119387 0.815323 0.324161
0.119387 0.815323 0.472548
0.119387 0.815323 0.620935
0.119387 0.815323 0.769323
0.119387 0.815323 0.917710
0.267774 0.815323 0.000000
0.267774 0.815323 0.027387
0.267774 0.815323 0.175774
0.267774 0.815323 0.324161
0.267774 0.815323 0.472548
0.267774 0.815323 0.620935
0.267774 0.815323 0.769323
0.267774 0.815323 0.917710
0.416161 0.815323 0.000000
0.416161 0.815323 0.027387
0.416161 0.815323 0.175774
0.416161 0.815323 0.324161
0.416161 0.815323 0.472548
0.416161 0.815323 0.620935
0.416161 0.815323 0.769323
0.416161 0.815323 0.917710
0.564548 0.815323 0.000000
0.564548 0.815323 0.027387
0.564548 0.815323 0.175774
0.564548 0.815323 0.324161
0.564548 0.815323 0.472548
0.564548 0.815323 0.620935
0.564548 0.815323 0.769323
0.564548 0.815323 0.917710
0.712935 0.815323 0.000000
0.712935 0.815323 0.027387
0.712935 0.815323 0.175774
0.712935 0.815323 0.324161
0.712935 0.815323 0.472548
0.712935 0.815323 0.620935
0.712935 0.815323 0.769323
0.712935 0.815323 0.917710
0.861323 0.815323 0.000000
0.861323 0.815323 0.027387
0.861323 0.815323 0.175774
0.861323 0.815323 0.324161
0.861323 0.815323 0.472548
0.861323 0.815323 0.620935
0.861323 0.815323 0.769323
0.861323 0.815323 0.917710
1.000000 0.815323 0.000000
1.000000 0.815323 0.027387
1.000000 0.815323 0.175774
1.000000 0.815323 0.324161
1.000000 0.815323 0.472548
1.000000 0.815323 0.620935
1.000000 0.815323 0.769323
1.000000 0.815323 0.917710
0.000000 0.963710 0.000000
0.000000 0.963710 0.027387
0.000000 0.963710 0.175774
0.000000 0.963710 0.324161
0.000000 0.963710 0.472548
0.000000 0.963710 0.620935
0.000000 0.963710 0.769323
0.000000 0.963710 0.917710
0.119387 0.963710 0.000000
0.119387 0.963710 0.027387
0.119387 0.963710 0.175774
0.119387 0.963710 0.324161
0.119387 0.963710 0.472548
0.119387 0.963710 0.620935
0.119387 0.963710 0.769323
0.119387 0.963710 0.917710
0.267774 0.963710 0.000000
0.267774 0.963710 0.027387
0.267774 0.963710 0.175774
0.267774 0.963710 0.324161
0.267774 0.963710 0.472548
0.267774 0.963710 0.620935
0.267774 0.963710 0.769323
0.267774 0.963710 0.917710
0.416161 0.963710 0.000000
0.416161 0.963710 0.027387
0.416161 0.963710 0.175774
0.416161 0.963710 0.324161
0.416161 0.963710 0.472548
0.416161 0.963710 0.620935
0.416161 0.963710 0.769323
0.416161 0.963710 0.917710
0.564548 0.963710 0.000000
0.564548 0.963710 0.027387
0.564548 0.963710 0.175774
0.564548 0.963710 0.324161
0.564548 0.963710 0.472548
0.564548 0.963710 0.620935
0.564548 0.963710 0.769323
0.564548 0.963710 0.917710
0.712935 0.963710 0.000000
0.712935 0.963710 0.027387
0.712935 0.963710 0.175774
0.712935 0.963710 0.324161
0.712935 0.963710 0.472548
0.712935 0.963710 0.620935
0.712935 0.963710 0.769323
0.712935 0.963710 0.917710
0.861323 0.963710 0.000000
0.861323 0.963710 0.027387
0.861323 0.963710 0.175774
0.861323 0.963710 0.324161
0.861323 0.963710 0.472548
0.861323 0.963710 0.620935
0.861323 0.963710 0.769323
0.861323 0.963710 0.917710
1.000000 0.963710 0.000000
1.000000 0.963710 0.027387
1.000000 0.963710 0.175774
1.000000 0.963710 0.324161
1.000000 0.963710 0.472548
1.000000 0.963710 0.620935
1.000000 0.963710 0.769323
1.000000 0.963710 0.917710
