backend/output/cc65dae9-cd68-4f0a-bf68-c43f52be24b7.cube
# Generated by LUT Generator
LUT_3D_SIZE 5
DOMAIN_MIN 0.000000 0.000000 0.000000
DOMAIN_MAX 0.903226 0.903226 0.903226
0.000000 0.000000 0.000000
0.000000 0.000000 0.138677
0.000000 0.000000 0.398355
0.000000 0.000000 0.658032
0.000000 0.000000 0.917710
0.230677 0.000000 0.000000
0.230677 0.000000 0.138677
0.230677 0.000000 0.398355
0.230677 0.000000 0.658032
0.230677 0.000000 0.917710
0.490355 0.000000 0.000000
0.490355 0.000000 0.138677
0.490355 0.000000 0.398355
0.490355 0.000000 0.658032
0.490355 0.000000 0.917710
0.750032 0.000000 0.000000
0.750032 0.000000 0.138677
0.750032 0.000000 0.398355
0.750032 0.000000 0.658032
0.750032 0.000000 0.917710
1.000000 0.000000 0.000000
1.000000 0.000000 0.138677
1.000000 0.000000 0.398355
1.000000 0.000000 0.658032
1.000000 0.000000 0.917710
0.000000 0.184677 0.000000
0.000000 0.184677 0.138677
0.000000 0.184677 0.398355
0.000000 0.184677 0.658032
0.000000 0.184677 0.917710
0.230677 0.184677 0.000000
0.230677 0.184677 0.138677
0.230677 0.184677 0.398355
0.230677 0.184677 0.658032
0.230677 0.184677 0.917710
0.490355 0.184677 0.000000
0.490355 0.184677 0.138677
0.490355 0.184677 0.398355
0.490355 0.184677 0.658032
0.490355 0.184677 0.917710
0.750032 0.184677 0.000000
0.750032 0.184677 0.138677
0.750032 0.184677 0.398355
0.750032 0.184677 0.658032
0.750032 0.184677 0.917710
1.000000 0.184677 0.000000
1.000000 0.184677 0.138677
1.000000 0.184677 0.398355
1.000000 0.184677 0.658032
1.000000 0.184677 0.917710
0.000000 0.444355 0.000000
0.000000 0.444355 0.138677
0.000000 0.444355 0.398355
0.000000 0.444355 0.658032
0.000000 0.444355 0.917710
0.230677 0.444355 0.000000
0.230677 0.444355 0.138677
0.230677 0.444355 0.398355
0.230677 0.444355 0.658032
0.230677 0.444355 0.917710
0.490355 0.444355 0.000000
0.490355 0.444355 0.138677
0.490355 0.444355 0.398355
0.490355 0.444355 0.658032
0.490355 0.444355 0.917710
0.750032 0.444355 0.000000
0.750032 0.444355 0.138677
0.750032 0.444355 0.398355
0.750032 0.444355 0.658032
0.750032 0.444355 0.917710
1.000000 0.444355 0.000000
1.000000 0.444355 0.138677
1.000000 0.444355 0.398355
1.000000 0.444355 0.658032
1.000000 0.444355 0.917710
0.000000 0.704032 0.000000
0.000000 0.704032 0.138677
0.000000 0.704032 0.398355
0.000000 0.704032 0.658032
0.000000 0.704032 0.917710
0.230677 0.704032 0.000000
0.230677 0.704032 0.138677
0.230677 0.704032 0.398355
0.230677 0.704032 0.658032
0.230677 0.704032 0.917710
0.490355 0.704032 0.000000
0.490355 0.704032 0.138677
0.490355 0.704032 0.398355
0.490355 0.704032 0.658032
0.490355 0.704032 0.917710
0.750032 0.704032 0.000000
0.750032 0.704032 0.138677
0.750032 0.704032 0.398355
0.750032 0.704032 0.658032
0.750032 0.704032 0.917710
1.000000 0.704032 0.000000
1.000000 0.704032 0.138677
1.000000 0.704032 0.398355
1.000000 0.704032 0.658032
1.000000 0.704032 0.917710
0.000000 0.963710 0.000000
0.000000 0.963710 0.138677
0.000000 0.963710 0.398355
0.000000 0.963710 0.658032
0.000000 0.963710 0.917710
0.230677 0.963710 0.000000
0.230677 0.963710 0.138677
0.230677 0.963710 0.398355
0.230677 0.963710 0.658032
0.230677 0.963710 0.917710
0.490355 0.963710 0.000000
0.490355 0.963710 0.138677
0.490355 0.963710 0.398355
0.490355 0.963710 0.658032
0.490355 0.963710 0.917710
0.750032 0.963710 0.000000
0.750032 0.963710 0.138677
0.750032 0.963710 0.398355
0.750032 0.963710 0.658032
0.750032 0.963710 0.917710
1.000000 0.963710 0.000000
1.000000 0.963710 0.138677
1.000000 0.963710 0.398355
1.000000 0.963710 0.658032
1.000000 0.963710 0.917710
