backend/output/cc65dae9-cd68-4f0a-bf68-c43f52be24b7.cube
# Generated by LUT Generator
LUT_3D_SIZE 32
DOMAIN_MIN 0.0 0.0 0.0
DOMAIN_MAX 1.0 1.0 1.0
0.000000 0.000000 0.000000
0.000000 0.000000 0.000000
0.000000 0.000000 0.000000
0.000000 0.000000 0.000000
0.000000 0.000000 0.027387
0.000000 0.000000 0.064484
0.000000 0.000000 0.101581
0.000000 0.000000 0.138677
0.000000 0.000000 0.175774
0.000000 0.000000 0.212871
0.000000 0.000000 0.249968
0.000000 0.000000 0.287065
0.000000 0.000000 0.324161
0.000000 0.000000 0.361258
0.000000 0.000000 0.398355
0.000000 0.000000 0.435452
0.000000 0.000000 0.472548
0.000000 0.000000 0.509645
0.000000 0.000000 0.546742
0.000000 0.000000 0.583839
0.000000 0.000000 0.620935
0.000000 0.000000 0.658032
0.000000 0.000000 0.695129
0.000000 0.000000 0.732226
0.000000 0.000000 0.769323
0.000000 0.000000 0.806419
0.000000 0.000000 0.843516
0.000000 0.000000 0.880613
0.000000 0.000000 0.917710
0.000000 0.000000 0.954806
0.000000 0.000000 0.991903
0.000000 0.000000 1.000000
0.008097 0.000000 0.000000
0.008097 0.000000 0.000000
0.008097 0.000000 0.000000
0.008097 0.000000 0.000000
0.008097 0.000000 0.027387
0.008097 0.000000 0.064484
0.008097 0.000000 0.101581
0.008097 0.000000 0.138677
0.008097 0.000000 0.175774
0.008097 0.000000 0.212871
0.008097 0.000000 0.249968
0.008097 0.000000 0.287065
0.008097 0.000000 0.324161
0.008097 0.000000 0.361258
0.008097 0.000000 0.398355
0.008097 0.000000 0.435452
0.008097 0.000000 0.472548
0.008097 0.000000 0.509645
0.008097 0.000000 0.546742
0.008097 0.000000 0.583839
0.008097 0.000000 0.620935
0.008097 0.000000 0.658032
0.008097 0.000000 0.695129
0.008097 0.000000 0.732226
0.008097 0.000000 0.769323
0.008097 0.000000 0.806419
0.008097 0.000000 0.843516
0.008097 0.000000 0.880613
0.008097 0.000000 0.917710
0.008097 0.000000 0.954806
0.008097 0.000000 0.991903
0.008097 0.000000 1.000000
0.045194 0.000000 0.000000
0.045194 0.000000 0.000000
0.045194 0.000000 0.000000
0.045194 0.000000 0.000000
0.045194 0.000000 0.027387
0.045194 0.000000 0.064484
0.045194 0.000000 0.101581
0.045194 0.000000 0.138677
0.045194 0.000000 0.175774
0.045194 0.000000 0.212871
0.045194 0.000000 0.249968
0.045194 0.000000 0.287065
0.045194 0.000000 0.324161
0.045194 0.000000 0.361258
0.045194 0.000000 0.398355
0.045194 0.000000 0.435452
0.045194 0.000000 0.472548
0.045194 0.000000 0.509645
0.045194 0.000000 0.546742
0.045194 0.000000 0.583839
0.045194 0.000000 0.620935
0.045194 0.000000 0.658032
0.045194 0.000000 0.695129
0.045194 0.000000 0.732226
0.045194 0.000000 0.769323
0.045194 0.000000 0.806419
0.045194 0.000000 0.843516
0.045194 0.000000 0.880613
0.045194 0.000000 0.917710
0.045194 0.000000 0.954806
0.045194 0.000000 0.991903
0.045194 0.000000 1.000000
0.082290 0.000000 0.000000
0.082290 0.000000 0.000000
0.082290 0.000000 0.000000
0.082290 0.000000 0.000000
0.082290 0.000000 0.027387
0.082290 0.000000 0.064484
0.082290 0.000000 0.101581
0.082290 0.000000 0.138677
0.082290 0.000000 0.175774
0.082290 0.000000 0.212871
0.082290 0.000000 0.249968
0.082290 0.000000 0.287065
0.082290 0.000000 0.324161
0.082290 0.000000 0.361258
0.082290 0.000000 0.398355
0.082290 0.000000 0.435452
0.082290 0.000000 0.472548
0.082290 0.000000 0.509645
0.082290 0.000000 0.546742
0.082290 0.000000 0.583839
0.082290 0.000000 0.620935
0.082290 0.000000 0.658032
0.082290 0.000000 0.695129
0.082290 0.000000 0.732226
0.082290 0.000000 0.769323
0.082290 0.000000 0.806419
0.082290 0.000000 0.843516
0.082290 0.000000 0.880613
0.082290 0.000000 0.917710
0.082290 0.000000 0.954806
0.082290 0.000000 0.991903
0.082290 0.000000 1.000000
0.119387 0.000000 0.000000
0.119387 0.000000 0.000000
0.119387 0.000000 0.000000
0.119387 0.000000 0.000000
0.119387 0.000000 0.027387
0.119387 0.000000 0.064484
0.119387 0.000000 0.101581
0.119387 0.000000 0.138677
0.119387 0.000000 0.175774
0.119387 0.000000 0.212871
0.119387 0.000000 0.249968
0.119387 0.000000 0.287065
0.119387 0.000000 0.324161
0.119387 0.000000 0.361258
0.119387 0.000000 0.398355
0.119387 0.000000 0.435452
0.119387 0.000000 0.472548
0.119387 0.000000 0.509645
0.119387 0.000000 0.546742
0.119387 0.000000 0.583839
0.119387 0.000000 0.620935
0.119387 0.000000 0.658032
0.119387 0.000000 0.695129
0.119387 0.000000 0.732226
0.119387 0.000000 0.769323
0.119387 0.000000 0.806419
0.119387 0.000000 0.843516
0.119387 0.000000 0.880613
0.119387 0.000000 0.917710
0.119387 0.000000 0.954806
0.119387 0.000000 0.991903
0.119387 0.000000 1.000000
0.156484 0.000000 0.000000
0.156484 0.000000 0.000000
0.156484 0.000000 0.000000
0.156484 0.000000 0.000000
0.156484 0.000000 0.027387
0.156484 0.000000 0.064484
0.156484 0.000000 0.101581
0.156484 0.000000 0.138677
0.156484 0.000000 0.175774
0.156484 0.000000 0.212871
0.156484 0.000000 0.249968
0.156484 0.000000 0.287065
0.156484 0.000000 0.324161
0.156484 0.000000 0.361258
0.156484 0.000000 0.398355
0.156484 0.000000 0.435452
0.156484 0.000000 0.472548
0.156484 0.000000 0.509645
0.156484 0.000000 0.546742
0.156484 0.000000 0.583839
0.156484 0.000000 0.620935
0.156484 0.000000 0.658032
0.156484 0.000000 0.695129
0.156484 0.000000 0.732226
0.156484 0.000000 0.769323
0.156484 0.000000 0.806419
0.156484 0.000000 0.843516
0.156484 0.000000 0.880613
0.156484 0.000000 0.917710
0.156484 0.000000 0.954806
0.156484 0.000000 0.991903
0.156484 0.000000 1.000000
0.193581 0.000000 0.000000
0.193581 0.000000 0.000000
0.193581 0.000000 0.000000
0.193581 0.000000 0.000000
0.193581 0.000000 0.027387
0.193581 0.000000 0.064484
0.193581 0.000000 0.101581
0.193581 0.000000 0.138677
0.193581 0.000000 0.175774
0.193581 0.000000 0.212871
0.193581 0.000000 0.249968
0.193581 0.000000 0.287065
0.193581 0.000000 0.324161
0.193581 0.000000 0.361258
0.193581 0.000000 0.398355
0.193581 0.000000 0.435452
0.193581 0.000000 0.472548
0.193581 0.000000 0.509645
0.193581 0.000000 0.546742
0.193581 0.000000 0.583839
0.193581 0.000000 0.620935
0.193581 0.000000 0.658032
0.193581 0.000000 0.695129
0.193581 0.000000 0.732226
0.193581 0.000000 0.769323
0.193581 0.000000 0.806419
0.193581 0.000000 0.843516
0.193581 0.000000 0.880613
0.193581 0.000000 0.917710
0.193581 0.000000 0.954806
0.193581 0.000000 0.991903
0.193581 0.000000 1.000000
0.230677 0.000000 0.000000
0.230677 0.000000 0.000000
0.230677 0.000000 0.000000
0.230677 0.000000 0.000000
0.230677 0.000000 0.027387
0.230677 0.000000 0.064484
0.230677 0.000000 0.101581
0.230677 0.000000 0.138677
0.230677 0.000000 0.175774
0.230677 0.000000 0.212871
0.230677 0.000000 0.249968
0.230677 0.000000 0.287065
0.230677 0.000000 0.324161
0.230677 0.000000 0.361258
0.230677 0.000000 0.398355
0.230677 0.000000 0.435452
0.230677 0.000000 0.472548
0.230677 0.000000 0.509645
0.230677 0.000000 0.546742
0.230677 0.000000 0.583839
0.230677 0.000000 0.620935
0.230677 0.000000 0.658032
0.230677 0.000000 0.695129
0.230677 0.000000 0.732226
0.230677 0.000000 0.769323
0.230677 0.000000 0.806419
0.230677 0.000000 0.843516
0.230677 0.000000 0.880613
0.230677 0.000000 0.917710
0.230677 0.000000 0.954806
0.230677 0.000000 0.991903
0.230677 0.000000 1.000000
0.267774 0.000000 0.000000
0.267774 0.000000 0.000000
0.267774 0.000000 0.000000
0.267774 0.000000 0.000000
0.267774 0.000000 0.027387
0.267774 0.000000 0.064484
0.267774 0.000000 0.101581
0.267774 0.000000 0.138677
0.267774 0.000000 0.175774
0.267774 0.000000 0.212871
0.267774 0.000000 0.249968
0.267774 0.000000 0.287065
0.267774 0.000000 0.324161
0.267774 0.000000 0.361258
0.267774 0.000000 0.398355
0.267774 0.000000 0.435452
0.267774 0.000000 0.472548
0.267774 0.000000 0.509645
0.267774 0.000000 0.546742
0.267774 0.000000 0.583839
0.267774 0.000000 0.620935
0.267774 0.000000 0.658032
0.267774 0.000000 0.695129
0.267774 0.000000 0.732226
0.267774 0.000000 0.769323
0.267774 0.000000 0.806419
0.267774 0.000000 0.843516
0.267774 0.000000 0.880613
0.267774 0.000000 0.917710
0.267774 0.000000 0.954806
0.267774 0.000000 0.991903
0.267774 0.000000 1.000000
0.304871 0.000000 0.000000
0.304871 0.000000 0.000000
0.304871 0.000000 0.000000
0.304871 0.000000 0.000000
0.304871 0.000000 0.027387
0.304871 0.000000 0.064484
0.304871 0.000000 0.101581
0.304871 0.000000 0.138677
0.304871 0.000000 0.175774
0.304871 0.000000 0.212871
0.304871 0.000000 0.249968
0.304871 0.000000 0.287065
0.304871 0.000000 0.324161
0.304871 0.000000 0.361258
0.304871 0.000000 0.398355
0.304871 0.000000 0.435452
0.304871 0.000000 0.472548
0.304871 0.000000 0.509645
0.304871 0.000000 0.546742
0.304871 0.000000 0.583839
0.304871 0.000000 0.620935
0.304871 0.000000 0.658032
0.304871 0.000000 0.695129
0.304871 0.000000 0.732226
0.304871 0.000000 0.769323
0.304871 0.000000 0.806419
0.304871 0.000000 0.843516
0.304871 0.000000 0.880613
0.304871 0.000000 0.917710
0.304871 0.000000 0.954806
0.304871 0.000000 0.991903
0.304871 0.000000 1.000000
0.341968 0.000000 0.000000
0.341968 0.000000 0.000000
0.341968 0.000000 0.000000
0.341968 0.000000 0.000000
0.341968 0.000000 0.027387
0.341968 0.000000 0.064484
0.341968 0.000000 0.101581
0.341968 0.000000 0.138677
0.341968 0.000000 0.175774
0.341968 0.000000 0.212871
0.341968 0.000000 0.249968
0.341968 0.000000 0.287065
0.341968 0.000000 0.324161
0.341968 0.000000 0.361258
0.341968 0.000000 0.398355
0.341968 0.000000 0.435452
0.341968 0.000000 0.472548
0.341968 0.000000 0.509645
0.341968 0.000000 0.546742
0.341968 0.000000 0.583839
0.341968 0.000000 0.620935
0.341968 0.000000 0.658032
0.341968 0.000000 0.695129
0.341968 0.000000 0.732226
0.341968 0.000000 0.769323
0.341968 0.000000 0.806419
0.341968 0.000000 0.843516
0.341968 0.000000 0.880613
0.341968 0.000000 0.917710
0.341968 0.000000 0.954806
0.341968 0.000000 0.991903
0.341968 0.000000 1.000000
0.379065 0.000000 0.000000
0.379065 0.000000 0.000000
0.379065 0.000000 0.000000
0.379065 0.000000 0.000000
0.379065 0.000000 0.027387
0.379065 0.000000 0.064484
0.379065 0.000000 0.101581
0.379065 0.000000 0.138677
0.379065 0.000000 0.175774
0.379065 0.000000 0.212871
0.379065 0.000000 0.249968
0.379065 0.000000 0.287065
0.379065 0.000000 0.324161
0.379065 0.000000 0.361258
0.379065 0.000000 0.398355
0.379065 0.000000 0.435452
0.379065 0.000000 0.472548
0.379065 0.000000 0.509645
0.379065 0.000000 0.546742
0.379065 0.000000 0.583839
0.379065 0.000000 0.620935
0.379065 0.000000 0.658032
0.379065 0.000000 0.695129
0.379065 0.000000 0.732226
0.379065 0.000000 0.769323
0.379065 0.000000 0.806419
0.379065 0.000000 0.843516
0.379065 0.000000 0.880613
0.379065 0.000000 0.917710
0.379065 0.000000 0.954806
0.379065 0.000000 0.991903
0.379065 0.000000 1.000000
0.416161 0.000000 0.000000
0.416161 0.000000 0.000000
0.416161 0.000000 0.000000
0.416161 0.000000 0.000000
0.416161 0.000000 0.027387
0.416161 0.000000 0.064484
0.416161 0.000000 0.101581
0.416161 0.000000 0.138677
0.416161 0.000000 0.175774
0.416161 0.000000 0.212871
0.416161 0.000000 0.249968
0.416161 0.000000 0.287065
0.416161 0.000000 0.324161
0.416161 0.000000 0.361258
0.416161 0.000000 0.398355
0.416161 0.000000 0.435452
0.416161 0.000000 0.472548
0.416161 0.000000 0.509645
0.416161 0.000000 0.546742
0.416161 0.000000 0.583839
0.416161 0.000000 0.620935
0.416161 0.000000 0.658032
0.416161 0.000000 0.695129
0.416161 0.000000 0.732226
0.416161 0.000000 0.769323
0.416161 0.000000 0.806419
0.416161 0.000000 0.843516
0.416161 0.000000 0.880613
0.416161 0.000000 0.917710
0.416161 0.000000 0.954806
0.416161 0.000000 0.991903
0.416161 0.000000 1.000000
0.453258 0.000000 0.000000
0.453258 0.000000 0.000000
0.453258 0.000000 0.000000
0.453258 0.000000 0.000000
0.453258 0.000000 0.027387
0.453258 0.000000 0.064484
0.453258 0.000000 0.101581
0.453258 0.000000 0.138677
0.453258 0.000000 0.175774
0.453258 0.000000 0.212871
0.453258 0.000000 0.249968
0.453258 0.000000 0.287065
0.453258 0.000000 0.324161
0.453258 0.000000 0.361258
0.453258 0.000000 0.398355
0.453258 0.000000 0.435452
0.453258 0.000000 0.472548
0.453258 0.000000 0.509645
0.453258 0.000000 0.546742
0.453258 0.000000 0.583839
0.453258 0.000000 0.620935
0.453258 0.000000 0.658032
0.453258 0.000000 0.695129
0.453258 0.000000 0.732226
0.453258 0.000000 0.769323
0.453258 0.000000 0.806419
0.453258 0.000000 0.843516
0.453258 0.000000 0.880613
0.453258 0.000000 0.917710
0.453258 0.000000 0.954806
0.453258 0.000000 0.991903
0.453258 0.000000 1.000000
0.490355 0.000000 0.000000
0.490355 0.000000 0.000000
0.490355 0.000000 0.000000
0.490355 0.000000 0.000000
0.490355 0.000000 0.027387
0.490355 0.000000 0.064484
0.490355 0.000000 0.101581
0.490355 0.000000 0.138677
0.490355 0.000000 0.175774
0.490355 0.000000 0.212871
0.490355 0.000000 0.249968
0.490355 0.000000 0.287065
0.490355 0.000000 0.324161
0.490355 0.000000 0.361258
0.490355 0.000000 0.398355
0.490355 0.000000 0.435452
0.490355 0.000000 0.472548
0.490355 0.000000 0.509645
0.490355 0.000000 0.546742
0.490355 0.000000 0.583839
0.490355 0.000000 0.620935
0.490355 0.000000 0.658032
0.490355 0.000000 0.695129
0.490355 0.000000 0.732226
0.490355 0.000000 0.769323
0.490355 0.000000 0.806419
0.490355 0.000000 0.843516
0.490355 0.000000 0.880613
0.490355 0.000000 0.917710
0.490355 0.000000 0.954806
0.490355 0.000000 0.991903
0.490355 0.000000 1.000000
0.527452 0.000000 0.000000
0.527452 0.000000 0.000000
0.527452 0.000000 0.000000
0.527452 0.000000 0.000000
0.527452 0.000000 0.027387
0.527452 0.000000 0.064484
0.527452 0.000000 0.101581
0.527452 0.000000 0.138677
0.527452 0.000000 0.175774
0.527452 0.000000 0.212871
0.527452 0.000000 0.249968
0.527452 0.000000 0.287065
0.527452 0.000000 0.324161
0.527452 0.000000 0.361258
0.527452 0.000000 0.398355
0.527452 0.000000 0.435452
0.527452 0.000000 0.472548
0.527452 0.000000 0.509645
0.527452 0.000000 0.546742
0.527452 0.000000 0.583839
0.527452 0.000000 0.620935
0.527452 0.000000 0.658032
0.527452 0.000000 0.695129
0.527452 0.000000 0.732226
0.527452 0.000000 0.769323
0.527452 0.000000 0.806419
0.527452 0.000000 0.843516
0.527452 0.000000 0.880613
0.527452 0.000000 0.917710
0.527452 0.000000 0.954806
0.527452 0.000000 0.991903
0.527452 0.000000 1.000000
0.564548 0.000000 0.000000
0.564548 0.000000 0.000000
0.564548 0.000000 0.000000
0.564548 0.000000 0.000000
0.564548 0.000000 0.027387
0.564548 0.000000 0.064484
0.564548 0.000000 0.101581
0.564548 0.000000 0.138677
0.564548 0.000000 0.175774
0.564548 0.000000 0.212871
0.564548 0.000000 0.249968
0.564548 0.000000 0.287065
0.564548 0.000000 0.324161
0.564548 0.000000 0.361258
0.564548 0.000000 0.398355
0.564548 0.000000 0.435452
0.564548 0.000000 0.472548
0.564548 0.000000 0.509645
0.564548 0.000000 0.546742
0.564548 0.000000 0.583839
0.564548 0.000000 0.620935
0.564548 0.000000 0.658032
0.564548 0.000000 0.695129
0.564548 0.000000 0.732226
0.564548 0.000000 0.769323
0.564548 0.000000 0.806419
0.564548 0.000000 0.843516
0.564548 0.000000 0.880613
0.564548 0.000000 0.917710
0.564548 0.000000 0.954806
0.564548 0.000000 0.991903
0.564548 0.000000 1.000000
0.601645 0.000000 0.000000
0.601645 0.000000 0.000000
0.601645 0.000000 0.000000
0.601645 0.000000 0.000000
0.601645 0.000000 0.027387
0.601645 0.000000 0.064484
0.601645 0.000000 0.101581
0.601645 0.000000 0.138677
0.601645 0.000000 0.175774
0.601645 0.000000 0.212871
0.601645 0.000000 0.249968
0.601645 0.000000 0.287065
0.601645 0.000000 0.324161
0.601645 0.000000 0.361258
0.601645 0.000000 0.398355
0.601645 0.000000 0.435452
0.601645 0.000000 0.472548
0.601645 0.000000 0.509645
0.601645 0.000000 0.546742
0.601645 0.000000 0.583839
0.601645 0.000000 0.620935
0.601645 0.000000 0.658032
0.601645 0.000000 0.695129
0.601645 0.000000 0.732226
0.601645 0.000000 0.769323
0.601645 0.000000 0.806419
0.601645 0.000000 0.843516
0.601645 0.000000 0.880613
0.601645 0.000000 0.917710
0.601645 0.000000 0.954806
0.601645 0.000000 0.991903
0.601645 0.000000 1.000000
0.638742 0.000000 0.000000
0.638742 0.000000 0.000000
0.638742 0.000000 0.000000
0.638742 0.000000 0.000000
0.638742 0.000000 0.027387
0.638742 0.000000 0.064484
0.638742 0.000000 0.101581
0.638742 0.000000 0.138677
0.638742 0.000000 0.175774
0.638742 0.000000 0.212871
0.638742 0.000000 0.249968
0.638742 0.000000 0.287065
0.638742 0.000000 0.324161
0.638742 0.000000 0.361258
0.638742 0.000000 0.398355
0.638742 0.000000 0.435452
0.638742 0.000000 0.472548
0.638742 0.000000 0.509645
0.638742 0.000000 0.546742
0.638742 0.000000 0.583839
0.638742 0.000000 0.620935
0.638742 0.000000 0.658032
0.638742 0.000000 0.695129
0.638742 0.000000 0.732226
0.638742 0.000000 0.769323
0.638742 0.000000 0.806419
0.638742 0.000000 0.843516
0.638742 0.000000 0.880613
0.638742 0.000000 0.917710
0.638742 0.000000 0.954806
0.638742 0.000000 0.991903
0.638742 0.000000 1.000000
0.675839 0.000000 0.000000
0.675839 0.000000 0.000000
0.675839 0.000000 0.000000
0.675839 0.000000 0.000000
0.675839 0.000000 0.027387
0.675839 0.000000 0.064484
0.675839 0.000000 0.101581
0.675839 0.000000 0.138677
0.675839 0.000000 0.175774
0.675839 0.000000 0.212871
0.675839 0.000000 0.249968
0.675839 0.000000 0.287065
0.675839 0.000000 0.324161
0.675839 0.000000 0.361258
0.675839 0.000000 0.398355
0.675839 0.000000 0.435452
0.675839 0.000000 0.472548
0.675839 0.000000 0.509645
0.675839 0.000000 0.546742
0.675839 0.000000 0.583839
0.675839 0.000000 0.620935
0.675839 0.000000 0.658032
0.675839 0.000000 0.695129
0.675839 0.000000 0.732226
0.675839 0.000000 0.769323
0.675839 0.000000 0.806419
0.675839 0.000000 0.843516
0.675839 0.000000 0.880613
0.675839 0.000000 0.917710
0.675839 0.000000 0.954806
0.675839 0.000000 0.991903
0.675839 0.000000 1.000000
0.712935 0.000000 0.000000
0.712935 0.000000 0.000000
0.712935 0.000000 0.000000
0.712935 0.000000 0.000000
0.712935 0.000000 0.027387
0.712935 0.000000 0.064484
0.712935 0.000000 0.101581
0.712935 0.000000 0.138677
0.712935 0.000000 0.175774
0.712935 0.000000 0.212871
0.712935 0.000000 0.249968
0.712935 0.000000 0.287065
0.712935 0.000000 0.324161
0.712935 0.000000 0.361258
0.712935 0.000000 0.398355
0.712935 0.000000 0.435452
0.712935 0.000000 0.472548
0.712935 0.000000 0.509645
0.712935 0.000000 0.546742
0.712935 0.000000 0.583839
0.712935 0.000000 0.620935
0.712935 0.000000 0.658032
0.712935 0.000000 0.695129
0.712935 0.000000 0.732226
0.712935 0.000000 0.769323
0.712935 0.000000 0.806419
0.712935 0.000000 0.843516
0.712935 0.000000 0.880613
0.712935 0.000000 0.917710
0.712935 0.000000 0.954806
0.712935 0.000000 0.991903
0.712935 0.000000 1.000000
0.750032 0.000000 0.000000
0.750032 0.000000 0.000000
0.750032 0.000000 0.000000
0.750032 0.000000 0.000000
0.750032 0.000000 0.027387
0.750032 0.000000 0.064484
0.750032 0.000000 0.101581
0.750032 0.000000 0.138677
0.750032 0.000000 0.175774
0.750032 0.000000 0.212871
0.750032 0.000000 0.249968
0.750032 0.000000 0.287065
0.750032 0.000000 0.324161
0.750032 0.000000 0.361258
0.750032 0.000000 0.398355
0.750032 0.000000 0.435452
0.750032 0.000000 0.472548
0.750032 0.000000 0.509645
0.750032 0.000000 0.546742
0.750032 0.000000 0.583839
0.750032 0.000000 0.620935
0.750032 0.000000 0.658032
0.750032 0.000000 0.695129
0.750032 0.000000 0.732226
0.750032 0.000000 0.769323
0.750032 0.000000 0.806419
0.750032 0.000000 0.843516
0.750032 0.000000 0.880613
0.750032 0.000000 0.917710
0.750032 0.000000 0.954806
0.750032 0.000000 0.991903
0.750032 0.000000 1.000000
0.787129 0.000000 0.000000
0.787129 0.000000 0.000000
0.787129 0.000000 0.000000
0.787129 0.000000 0.000000
0.787129 0.000000 0.027387
0.787129 0.000000 0.064484
0.787129 0.000000 0.101581
0.787129 0.000000 0.138677
0.787129 0.000000 0.175774
0.787129 0.000000 0.212871
0.787129 0.000000 0.249968
0.787129 0.000000 0.287065
0.787129 0.000000 0.324161
0.787129 0.000000 0.361258
0.787129 0.000000 0.398355
0.787129 0.000000 0.435452
0.787129 0.000000 0.472548
0.787129 0.000000 0.509645
0.787129 0.000000 0.546742
0.787129 0.000000 0.583839
0.787129 0.000000 0.620935
0.787129 0.000000 0.658032
0.787129 0.000000 0.695129
0.787129 0.000000 0.732226
0.787129 0.000000 0.769323
0.787129 0.000000 0.806419
0.787129 0.000000 0.843516
0.787129 0.000000 0.880613
0.787129 0.000000 0.917710
0.787129 0.000000 0.954806
0.787129 0.000000 0.991903
0.787129 0.000000 1.000000
0.824226 0.000000 0.000000
0.824226 0.000000 0.000000
0.824226 0.000000 0.000000
0.824226 0.000000 0.000000
0.824226 0.000000 0.027387
0.824226 0.000000 0.064484
0.824226 0.000000 0.101581
0.824226 0.000000 0.138677
0.824226 0.000000 0.175774
0.824226 0.000000 0.212871
0.824226 0.000000 0.249968
0.824226 0.000000 0.287065
0.824226 0.000000 0.324161
0.824226 0.000000 0.361258
0.824226 0.000000 0.398355
0.824226 0.000000 0.435452
0.824226 0.000000 0.472548
0.824226 0.000000 0.509645
0.824226 0.000000 0.546742
0.824226 0.000000 0.583839
0.824226 0.000000 0.620935
0.824226 0.000000 0.658032
0.824226 0.000000 0.695129
0.824226 0.000000 0.732226
0.824226 0.000000 0.769323
0.824226 0.000000 0.806419
0.824226 0.000000 0.843516
0.824226 0.000000 0.880613
0.824226 0.000000 0.917710
0.824226 0.000000 0.954806
0.824226 0.000000 0.991903
0.824226 0.000000 1.000000
0.861323 0.000000 0.000000
0.861323 0.000000 0.000000
0.861323 0.000000 0.000000
0.861323 0.000000 0.000000
0.861323 0.000000 0.027387
0.861323 0.000000 0.064484
0.861323 0.000000 0.101581
0.861323 0.000000 0.138677
0.861323 0.000000 0.175774
0.861323 0.000000 0.212871
0.861323 0.000000 0.249968
0.861323 0.000000 0.287065
0.861323 0.000000 0.324161
0.861323 0.000000 0.361258
0.861323 0.000000 0.398355
0.861323 0.000000 0.435452
0.861323 0.000000 0.472548
0.861323 0.000000 0.509645
0.861323 0.000000 0.546742
0.861323 0.000000 0.583839
0.861323 0.000000 0.620935
0.861323 0.000000 0.658032
0.861323 0.000000 0.695129
0.861323 0.000000 0.732226
0.861323 0.000000 0.769323
0.861323 0.000000 0.806419
0.861323 0.000000 0.843516
0.861323 0.000000 0.880613
0.861323 0.000000 0.917710
0.861323 0.000000 0.954806
0.861323 0.000000 0.991903
0.861323 0.000000 1.000000
0.898419 0.000000 0.000000
0.898419 0.000000 0.000000
0.898419 0.000000 0.000000
0.898419 0.000000 0.000000
0.898419 0.000000 0.027387
0.898419 0.000000 0.064484
0.898419 0.000000 0.101581
0.898419 0.000000 0.138677
0.898419 0.000000 0.175774
0.898419 0.000000 0.212871
0.898419 0.000000 0.249968
0.898419 0.000000 0.287065
0.898419 0.000000 0.324161
0.898419 0.000000 0.361258
0.898419 0.000000 0.398355
0.898419 0.000000 0.435452
0.898419 0.000000 0.472548
0.898419 0.000000 0.509645
0.898419 0.000000 0.546742
0.898419 0.000000 0.583839
0.898419 0.000000 0.620935
0.898419 0.000000 0.658032
0.898419 0.000000 0.695129
0.898419 0.000000 0.732226
0.898419 0.000000 0.769323
0.898419 0.000000 0.806419
0.898419 0.000000 0.843516
0.898419 0.000000 0.880613
0.898419 0.000000 0.917710
0.898419 0.000000 0.954806
0.898419 0.000000 0.991903
0.898419 0.000000 1.000000
0.935516 0.000000 0.000000
0.935516 0.000000 0.000000
0.935516 0.000000 0.000000
0.935516 0.000000 0.000000
0.935516 0.000000 0.027387
0.935516 0.000000 0.064484
0.935516 0.000000 0.101581
0.935516 0.000000 0.138677
0.935516 0.000000 0.175774
0.935516 0.000000 0.212871
0.935516 0.000000 0.249968
0.935516 0.000000 0.287065
0.935516 0.000000 0.324161
0.935516 0.000000 0.361258
0.935516 0.000000 0.398355
0.935516 0.000000 0.435452
0.935516 0.000000 0.472548
0.935516 0.000000 0.509645
0.935516 0.000000 0.546742
0.935516 0.000000 0.583839
0.935516 0.000000 0.620935
0.935516 0.000000 0.658032
0.935516 0.000000 0.695129
0.935516 0.000000 0.732226
0.935516 0.000000 0.769323
0.935516 0.000000 0.806419
0.935516 0.000000 0.843516
0.935516 0.000000 0.880613
0.935516 0.000000 0.917710
0.935516 0.000000 0.954806
0.935516 0.000000 0.991903
0.935516 0.000000 1.000000
0.972613 0.000000 0.000000
0.972613 0.000000 0.000000
0.972613 0.000000 0.000000
0.972613 0.000000 0.000000
0.972613 0.000000 0.027387
0.972613 0.000000 0.064484
0.972613 0.000000 0.101581
0.972613 0.000000 0.138677
0.972613 0.000000 0.175774
0.972613 0.000000 0.212871
0.972613 0.000000 0.249968
0.972613 0.000000 0.287065
0.972613 0.000000 0.324161
0.972613 0.000000 0.361258
0.972613 0.000000 0.398355
0.972613 0.000000 0.435452
0.972613 0.000000 0.472548
0.972613 0.000000 0.509645
0.972613 0.000000 0.546742
0.972613 0.000000 0.583839
0.972613 0.000000 0.620935
